X: 634
T: Xiaoguafu shangfen
L: 1/8
M: 2/4
K: A
A> B c c [I:setbarnb 1]| 
cB3 | 
e2c B | 
AF2B | 
AF2B | 
A4 | 
A> B c B | 
cB3 | 
e2A F | 
EC2F | 
E3F | 
E4 |]

@@@ Tune index: 9508
